assets/img/icons/segments.svg

<svg fill="none" height="25" viewBox="0 0 25 25" width="25" xmlns="http://www.w3.org/2000/svg" xmlns:xlink="http://www.w3.org/1999/xlink"><linearGradient id="a" gradientUnits="userSpaceOnUse" x1="3.07373" x2="23.4642" y1="15.4255" y2="15.4255"><stop offset="0" stop-color="#4c98ed"/><stop offset="1" stop-color="#e5a7de"/></linearGradient><clipPath id="b"><path d="m.987793.021973h24v24h-24z"/></clipPath><g clip-path="url(#b)"><path d="m14.6204 12.9143c-5.56608-4.88116-8.36393-4.46423-11.54667-4.46428v4.83498c4.50024 0 4.55716-.2199 9.77027 4.48 4.0194 3.6237 7.4663 4.6379 10.1206 4.7467.2759.0114.4996-.2136.4996-.4897v-4.2127c0-.2517-.188-.4638-.4373-.4988-3.9929-.5598-5.0998-1.4965-8.4065-4.3962z" fill="#6471b9"/><path d="m14.6204 17.4314c-5.56608 4.8812-8.36393 4.4642-11.54667 4.4643v-4.835c4.50024 0 4.55716.2199 9.77027-4.48 4.0194-3.62369 7.4662-3.27404 10.1205-3.21887.276.00574.4997.22971.4997.50585v3.81982c0 .2762-.2252.4998-.5013.501-4.4172.0195-5.0392.3462-8.3425 3.2429z" fill="url(#a)"/><g clip-rule="evenodd" fill="#2e3c47" fill-rule="evenodd"><path d="m3.87368 1.52192c0-.44182-.35817-.799996-.8-.799996s-.8.358176-.8.799996v11.91298c0 .4418.35817.8.8.8s.8-.3582.8-.8v-5.66197h19.01582v-5.15208h-19.01582z"/><path d="m3.07368 15.8284c.44183 0 .8.3581.8.8v5.8305c0 .4418-.35817.8-.8.8s-.8-.3582-.8-.8v-5.8305c0-.4419.35817-.8.8-.8z"/></g></g></svg>

<svg width="25" height="25" viewBox="0 0 25 25" fill="none" xmlns="http://www.w3.org/2000/svg">
<g clip-path="url(#clip0_5023_30100)">
<path d="M14.6204 12.9143C9.05432 8.03314 6.25647 8.45007 3.07373 8.45002V13.285C7.57397 13.285 7.63089 13.0651 12.844 17.765C16.8634 21.3887 20.3103 22.4029 22.9646 22.5117C23.2405 22.5231 23.4642 22.2981 23.4642 22.022V17.8093C23.4642 17.5576 23.2762 17.3455 23.0269 17.3105C19.034 16.7507 17.9271 15.814 14.6204 12.9143Z" fill="#6471B9"/>
<path d="M14.6204 17.4314C9.05432 22.3126 6.25647 21.8956 3.07373 21.8957V17.0607C7.57397 17.0607 7.63089 17.2806 12.844 12.5807C16.8634 8.95701 20.3102 9.30666 22.9645 9.36183C23.2405 9.36757 23.4642 9.59154 23.4642 9.86768V13.6875C23.4642 13.9637 23.239 14.1873 22.9629 14.1885C18.5457 14.208 17.9237 14.5347 14.6204 17.4314Z" fill="url(#paint0_linear_5023_30100)"/>
<path fill-rule="evenodd" clip-rule="evenodd" d="M3.87368 1.52192C3.87368 1.0801 3.51551 0.721924 3.07368 0.721924C2.63185 0.721924 2.27368 1.0801 2.27368 1.52192V13.4349C2.27368 13.8767 2.63185 14.2349 3.07368 14.2349C3.51551 14.2349 3.87368 13.8767 3.87368 13.4349L3.87368 7.77293H22.8895V2.62085H3.87368V1.52192Z" fill="#2E3C47"/>
<path fill-rule="evenodd" clip-rule="evenodd" d="M3.07368 15.8284C3.51551 15.8284 3.87368 16.1865 3.87368 16.6284L3.87368 22.4589C3.87368 22.9007 3.51551 23.2589 3.07368 23.2589C2.63185 23.2589 2.27368 22.9007 2.27368 22.4589L2.27368 16.6284C2.27368 16.1865 2.63185 15.8284 3.07368 15.8284Z" fill="#2E3C47"/>
</g>
<defs>
<linearGradient id="paint0_linear_5023_30100" x1="3.07373" y1="15.4255" x2="23.4642" y2="15.4255" gradientUnits="userSpaceOnUse">
<stop stop-color="#4C98ED"/>
<stop offset="1" stop-color="#E5A7DE"/>
</linearGradient>
<clipPath id="clip0_5023_30100">
<rect width="24" height="24" fill="white" transform="translate(0.987793 0.0219727)"/>
</clipPath>
</defs>
</svg>
